X: 1
T: Worcester Permain
T: 8x32S 3C (Drewry, Donside Bk)
T: 1CRH cast, castup; set/pet trn; circle; lead down; 1/2 R3
P: Kinlochewe
R: strathspey
C: J. Scott Skinner (Logie Colln)
C: arr. T. Traub 6-1-2015
M: 4/4
L: 1/8
K: D
|: A,|"D"D<D d2 "G"B<B "D"A2|"G"G>B "D"A>F "A"E>D C<E|"D"D<D d2 "G"B<B "D"A2|"G"G>B "D"A>F "A"E2 "D"D :|
b|"D"a<a f>d "G"B>d "D"A2|"G"G>B "D"A>F "A"E>D C<E|"D"A>afd "G"B<B "D"A>F|"G"G>B "D"A>F "A"E2 "D"D2|
"D"Aafd "G"Bd "D"A2|"G"G<B "D"A>F "A"E>D C<E|"D"D>d "A"c<d "G"B<d "D"A>F|"G"G/A/B "D"A>F "A"E2 "D"D2 |]
